X:3902
T:Joie de Vivre
P:Andersons
C:Carol Cook
R:Jig (8x32)
B:RSCDS 39-2
Z:Anselm Lingnau <anselm@strathspey.org>
M:6/8
L:1/8
K:C
|:"C"c2 e "G7"dcB|"C"cGE "C7"CEG|"F"AGF "C"GFE|"Dm"DEF "G7"GAB|
  "C"cde "G7"dcB|"C"cGE CEG|"F"A<fe "G7"d<gB|1 "C"c3 c2 G:|2 "C"c3 cef||
|:"C"gec "F"afc|"C"gec cde|"Dm"fed "D7"edc|"G"dBG "G7"GAB|
  "C"cde "G7"dcB|"C"cGE CEG|"F"A<fe "G7"d<gB|1 "C"c3 ce"G7"f:|2 "C"c3 c3|]
